X:241
T:Polska fr{\aa}n S\"ormland
R:sl\"angpolska
Z:id:hn-sp-241
M:3/4
L:1/16
K:G
d2c2 B4 G4 | c2B2 A4 D4 | G2GF G2A2 B2c2 | d2de d2c2 B2c2 |
d2c2 B4 G4 | c2B2 A4 D4 | G2GF G2A2 B2c2 | A2F2 G8 :|
|: D2D2 D2D2 D2D2 | D2E2 E2E2 E2F2 | G3A B2A2 G2F2 | G4 DEDC B,2C2 |
D2D2 D2D2 D2D2 | D2E2 E2E2 E2F2 | G3A B2A2 G2F2 | G4 G8 :|

